public/asssets/favicon.svg

<svg width="450" height="450" fill="none" xmlns="http://www.w3.org/2000/svg"><g clip-path="url(#a)"><rect width="450" height="450" rx="33" fill="#2B2A33"/><path d="M154.598 385v-44.93H109v-50.421h50.609v45.429H290.89v-85.866H154.598v-44.931H109v-94.852h45.598V64h141.303v45.429H342v49.922h-51.11v-44.93H159.609v85.367h136.292v44.431H342v95.851h-46.099V385H154.598Z" fill="#FF2F00"/><path d="M315 224v-35.198h5.797V183h17.965v5.802h5.86v6.377h-6.497v-5.739h-16.691v10.904h11.594v6.312h-11.594V224H315ZM347.847 224v-29.459h18.028v5.803h5.097v-5.803h12.295v5.803H389V224h-6.37v-23.082h-11.021V224h-6.371v-23.082h-10.957V224h-6.434Z" fill="#fff"/></g><defs><clipPath id="a"><path fill="#fff" d="M0 0h450v450H0z"/></clipPath></defs></svg>

<svg width="450" height="450" viewBox="0 0 450 450" fill="none" xmlns="http://www.w3.org/2000/svg">
<g clip-path="url(#clip0_3101_2)">
<rect width="450" height="450" rx="33" fill="#2B2A33"/>
<path d="M154.598 385V340.07H109V289.649H159.609V335.078H290.89V249.212H154.598V204.281H109V109.429H154.598V64H295.901V109.429H342V159.351H290.89V114.421H159.609V199.788H295.901V244.219H342V340.07H295.901V385H154.598Z" fill="#FF2F00"/>
<path d="M315 224V188.802H320.797V183H338.762V188.802H344.622V195.179H338.125V189.44H321.434V200.344H333.028V206.656H321.434V224H315Z" fill="white"/>
<path d="M347.847 224V194.541H365.875V200.344H370.972V194.541H383.267V200.344H389V224H382.63V200.918H371.609V224H365.238V200.918H354.281V224H347.847Z" fill="white"/>
</g>
<defs>
<clipPath id="clip0_3101_2">
<rect width="450" height="450" fill="white"/>
</clipPath>
</defs>
</svg>
